svg/blobs-icons/no-decorations/burger.svg

<svg xmlns="http://www.w3.org/2000/svg" xmlns:xlink="http://www.w3.org/1999/xlink" preserveAspectRatio="xMidYMid" width="217" height="160" viewBox="0 0 217 160"><defs><style>.cls-3{fill:#fbb713}.cls-4{fill:#ff3a2f}.cls-6{fill:#020403;opacity:.25}</style></defs><g id="group-52svg"><path d="M216.885 73.284C200.033 30.28 158.265-.004 109.377-.004 60.489-.004 18.721 30.28 1.869 73.284H216.885z" id="path-1" class="cls-3" fill-rule="evenodd"/><path d="M212.527 103.387s-210.016.0-210.016.0c-1.381.0-2.5-1.119-2.5-2.5V84.385c0-1.381 1.119-2.5 2.5-2.5H212.527c1.381.0 2.5 1.119 2.5 2.5v16.502c0 1.381-1.119 2.5-2.5 2.5z" id="path-2" class="cls-4" fill-rule="evenodd"/><path d="M184.2 159.293s-149.646.0-149.646.0C21.067 159.293 9.377 149.67 6.393 136.517L1.869 116.288s215.016.0 215.016.0-4.524 20.229-4.524 20.229C209.377 149.67 197.686 159.293 184.2 159.293z" id="path-3" class="cls-3" fill-rule="evenodd"/><path d="M87.875 4.296c47.227.0 87.739 28.3 105.634 68.988h23.376C200.033 30.28 158.265-.004 109.377-.004c-11.695.0-22.964 1.777-33.601 5.002C79.76 4.584 83.782 4.296 87.875 4.296z" id="path-4" class="cls-6" fill-rule="evenodd"/><path d="M186.782 116.288S182.259 136.517 182.259 136.517C179.275 149.67 167.584 159.293 154.097 159.293H184.2C197.686 159.293 209.377 149.67 212.361 136.517l4.524-20.229s-30.103.0-30.103.0z" id="path-5" class="cls-6" fill-rule="evenodd"/><path d="M58.065 51.096s-4.299.0-4.299.0c-1.997.0-3.615-1.618-3.615-3.615.0-1.996 1.618-3.614 3.615-3.614h4.299c1.996.0 3.615 1.618 3.615 3.614.0 1.997-1.619 3.615-3.615 3.615z" id="path-6" class="cls-4" fill-rule="evenodd"/><path d="M113.969 51.096S109.67 51.096 109.67 51.096c-1.996.0-3.616-1.618-3.616-3.615.0-1.996 1.62-3.614 3.616-3.614H113.969c1.99600000000001.0 3.614 1.618 3.614 3.614.0 1.997-1.618 3.615-3.614 3.615z" id="path-7" class="cls-4" fill-rule="evenodd"/><path d="M165.573 51.096S161.272 51.096 161.272 51.096c-1.99599999999998.0-3.614-1.618-3.614-3.615.0-1.996 1.61800000000002-3.614 3.614-3.614H165.573C167.57 43.867 169.188 45.485 169.188 47.481c0 1.997-1.618 3.615-3.61499999999998 3.615z" id="path-8" class="cls-4" fill-rule="evenodd"/><path d="M139.77 33.895S135.471 33.895 135.471 33.895C133.474 33.895 131.856 32.276 131.856 30.28S133.474 26.666 135.471 26.666H139.77C141.767 26.666 143.385 28.284 143.385 30.28S141.767 33.895 139.77 33.895z" id="path-9" class="cls-4" fill-rule="evenodd"/><path d="M88.168 29.595s-4.301.0-4.301.0c-1.997.0-3.616-1.62-3.616-3.616.0-1.995 1.619-3.614 3.616-3.614h4.301C90.163 22.365 91.782 23.984 91.782 25.979 91.782 27.975 90.163 29.595 88.168 29.595z" id="path-10" class="cls-4" fill-rule="evenodd"/></g></svg>

<svg xmlns="http://www.w3.org/2000/svg" xmlns:xlink="http://www.w3.org/1999/xlink" preserveAspectRatio="xMidYMid" width="217" height="160" viewBox="0 0 217 160">
  <defs>
    <style>

      .cls-3 {
        fill: #fbb713;
      }

      .cls-4 {
        fill: #ff3a2f;
      }

      .cls-6 {
        fill: #020403;
        opacity: 0.25;
      }
    </style>
  </defs>
  <g id="group-52svg">
    <path d="M216.885,73.284 C200.033,30.280 158.265,-0.004 109.377,-0.004 C60.489,-0.004 18.721,30.280 1.869,73.284 C1.869,73.284 216.885,73.284 216.885,73.284 Z" id="path-1" class="cls-3" fill-rule="evenodd"/>
    <path d="M212.527,103.387 C212.527,103.387 2.511,103.387 2.511,103.387 C1.130,103.387 0.011,102.268 0.011,100.887 C0.011,100.887 0.011,84.385 0.011,84.385 C0.011,83.004 1.130,81.885 2.511,81.885 C2.511,81.885 212.527,81.885 212.527,81.885 C213.908,81.885 215.027,83.004 215.027,84.385 C215.027,84.385 215.027,100.887 215.027,100.887 C215.027,102.268 213.908,103.387 212.527,103.387 Z" id="path-2" class="cls-4" fill-rule="evenodd"/>
    <path d="M184.200,159.293 C184.200,159.293 34.554,159.293 34.554,159.293 C21.067,159.293 9.377,149.670 6.393,136.517 C6.393,136.517 1.869,116.288 1.869,116.288 C1.869,116.288 216.885,116.288 216.885,116.288 C216.885,116.288 212.361,136.517 212.361,136.517 C209.377,149.670 197.686,159.293 184.200,159.293 Z" id="path-3" class="cls-3" fill-rule="evenodd"/>
    <path d="M87.875,4.296 C135.102,4.296 175.614,32.596 193.509,73.284 C193.509,73.284 216.885,73.284 216.885,73.284 C200.033,30.280 158.265,-0.004 109.377,-0.004 C97.682,-0.004 86.413,1.773 75.776,4.998 C79.760,4.584 83.782,4.296 87.875,4.296 Z" id="path-4" class="cls-6" fill-rule="evenodd"/>
    <path d="M186.782,116.288 C186.782,116.288 182.259,136.517 182.259,136.517 C179.275,149.670 167.584,159.293 154.097,159.293 C154.097,159.293 184.200,159.293 184.200,159.293 C197.686,159.293 209.377,149.670 212.361,136.517 C212.361,136.517 216.885,116.288 216.885,116.288 C216.885,116.288 186.782,116.288 186.782,116.288 Z" id="path-5" class="cls-6" fill-rule="evenodd"/>
    <path d="M58.065,51.096 C58.065,51.096 53.766,51.096 53.766,51.096 C51.769,51.096 50.151,49.478 50.151,47.481 C50.151,45.485 51.769,43.867 53.766,43.867 C53.766,43.867 58.065,43.867 58.065,43.867 C60.061,43.867 61.680,45.485 61.680,47.481 C61.680,49.478 60.061,51.096 58.065,51.096 Z" id="path-6" class="cls-4" fill-rule="evenodd"/>
    <path d="M113.969,51.096 C113.969,51.096 109.670,51.096 109.670,51.096 C107.674,51.096 106.054,49.478 106.054,47.481 C106.054,45.485 107.674,43.867 109.670,43.867 C109.670,43.867 113.969,43.867 113.969,43.867 C115.965,43.867 117.583,45.485 117.583,47.481 C117.583,49.478 115.965,51.096 113.969,51.096 Z" id="path-7" class="cls-4" fill-rule="evenodd"/>
    <path d="M165.573,51.096 C165.573,51.096 161.272,51.096 161.272,51.096 C159.276,51.096 157.658,49.478 157.658,47.481 C157.658,45.485 159.276,43.867 161.272,43.867 C161.272,43.867 165.573,43.867 165.573,43.867 C167.570,43.867 169.188,45.485 169.188,47.481 C169.188,49.478 167.570,51.096 165.573,51.096 Z" id="path-8" class="cls-4" fill-rule="evenodd"/>
    <path d="M139.770,33.895 C139.770,33.895 135.471,33.895 135.471,33.895 C133.474,33.895 131.856,32.276 131.856,30.280 C131.856,28.284 133.474,26.666 135.471,26.666 C135.471,26.666 139.770,26.666 139.770,26.666 C141.767,26.666 143.385,28.284 143.385,30.280 C143.385,32.276 141.767,33.895 139.770,33.895 Z" id="path-9" class="cls-4" fill-rule="evenodd"/>
    <path d="M88.168,29.595 C88.168,29.595 83.867,29.595 83.867,29.595 C81.870,29.595 80.251,27.975 80.251,25.979 C80.251,23.984 81.870,22.365 83.867,22.365 C83.867,22.365 88.168,22.365 88.168,22.365 C90.163,22.365 91.782,23.984 91.782,25.979 C91.782,27.975 90.163,29.595 88.168,29.595 Z" id="path-10" class="cls-4" fill-rule="evenodd"/>
  </g>
</svg>
